**kern	**kern
*staff2	*staff1
*clefF4	*clefG2
*k[b-e-]	*k[b-e-]
*M4/4	*M4/4
=9	=9
4FF 4F	4f
4r	8r
.	8f
4.r	8fL
.	8f
.	8f
8f	8fJ
=10	=10
8eL	8gL
8c	8g
8f	8a
8e-J	8aJ
8dL	8b-L
8f	8b-
8A	8cc
8fJ	8ccJ
=11	=11
16B-LL	16ddLL
16A	16ee-
16B-	16dd
16cJJ	16ccJJ
4d	4b-
2r	4r
.	4dd 4ff
=12	=12
4BB- 4B-	4b- 4dd
4r	4b- 4dd
4FF 4F	4a 4cc
4r	4a 4cc
=13	=13
4BB- 4B-	(16ddLL
.	16ff
.	16ee
.	16ffJJ
4r	16ggLL
.	16ff
.	16ee
.	16ffJJ
4r	16ggLL
.	16ff
.	16ee
.	16ffJJ
4d 4f	16ggLL
.	16ff
.	16ee
.	16ffJJ)
=14	=14
4B- 4d	16ggLL
.	16ff
.	16ee
.	16ffJJ
4B- 4d	16ggLL
.	16ff
.	16ee
.	16ffJJ
4F 4c	16ggLL
.	16ff
.	16ee
.	16ffJJ
4F 4c	16ggLL
.	16ff
.	16ee
.	16ffJJ
=15	=15
4BB- 4D 4F 4B-	4b-
4BB- 4D 4F 4B-	(16bb-LL
.	16aa
.	16bb-
.	16cccJJ)
4BB- 4D 4F 4B-	4bb-
4r	4r
=	=
*-	*-
